X:204
T:Hand O'er Hand
M:4/4
L:1/8
K:F
C2|\
F2F2 F2FF|F2C2 F2z2|c2cc c3B|A2G2 z2c2|
F2F2 F2FF|F2C2 F2z2|A2AB c3A|G2F2 z2 ||
